X: 1
T: String Quartet in F Minor opus 55 no 2 mvt 1
C: Franz Joseph Haydn
%%abc-version 2.0
%%abcx-abcm2ps-target-version 5.9.1 (29 Sep 2008)
%%abc-creator hum2abc beta
%%abcx-conversion-date 2021/02/14 14:38:10
%%abc-copyright Copyright (c) 1994, 2000 Center for Computer Assisted Research in the Humanities
%%abc-edited-by Frances Bennion
%%abcx-initial-encoding-date 1997/04/15
%%gracespace 0 6 6
%%humdrum-veritas 1842042117
%%humdrum-veritas-data 2363210021
%%linebreak <none>
%%barnumbers 0
L: 1/16
M: 2/4
N: Derived from op55n2-01.krn
Q: "Andante"
%%staves [1 2 3 4]
V: 1
V: 2
V: 3 clef=alto
V: 4 clef=bass
K: Ab
[V:1]c4 f2a2 [I:setbarnb2]|
[V:2]A8 |
[V:3]C8 |
[V:4]F,8- |
[V:1]g2>f2 =e2f2 |
[V:2]B6 A2 |
[V:3]D6 C2 |
[V:4]F,8 |
[V:1]c2c2 c2f=B |
[V:2]G2A2 G2F2 |
[V:3]C2F2 =E2=D2 |
[V:4]=E,2F,2 E,2G,2 |
[V:1]=B4 c2B2 |
[V:2]F4 =E2F2 |
[V:3]=D4 C2z2 |
[V:4]C,6 =D,2 |
[V:1]B4 G2d2 |
[V:2]G8 |
[V:3]D4 B,2B,2 |
[V:4]=E,8 |
[V:1]c2>B2 A2B2 |
[V:2]A2>G2 F2F2 |
[V:3]A,2>B,2 C2B,2 |
[V:4]F,6 D,2 |
[V:1]E2E2 E2F3/G/ |
[V:2]D6 D2 |
[V:3]G,6 B,2 |
[V:4]E,8 |
[V:1]G4 A2z2 |
[V:2]D4 C2z2 |
[V:3]B,4 A,2z2 |
[V:4]A,,2A,2 A,,2z2 |
[V:1]c4 e2_g2 |
[V:2]=A8 |
[V:3]E4 C2C2 |
[V:4]F,6 E,2 |
[V:1]f2>e2 d2d2 |
[V:2]B8 |
[V:3]D2>C2 B,2B,2 |
[V:4]D,4 _G,4 |
[V:1]c2c2 =A2A2 |
[V:2]_G2G2 E2E2 |
[V:3]E2E2 C2C2 |
[V:4]E,2E,2 F,2F,2 |
[V:1]B6 c2 |
[V:2]D6 E2 |
[V:3]B,4 z2=A2 |
[V:4]B,,2B,2 B,,2z2 |
[V:1]d6 =e2 |
[V:2]F6 G2 |
[V:3]B2z4 B2 |
[V:4]z2B,2 B,,4 |
[V:1]f6 a2 |
[V:2]A6 f2 |
[V:3]A2z4 =B,2 |
[V:4]z2=B,2 =B,,2B,,2 |
[V:1]g2c'>c' a>af3/f/ |
[V:2]=e2c>c A>AF3/F/ |
[V:3]C2C>C A,>A,F,3/F,/ |
[V:4]C,2C>C A,>A,F,3/F,/ |
[V:1]c4 z4 |
[V:2]C4 z4 |
[V:3]C,4 z4 |
[V:4]C,2CD CB,A,G, |
[V:1]c4 f2a2 |
[V:2]A8 |
[V:3]C8 |
[V:4]F,8- |
[V:1]g2>f2 =e2f2 |
[V:2]B6 A2 |
[V:3]D6 C2 |
[V:4]F,8 |
[V:1]c'2>b2 =a2b2 |
[V:2]c6 B2 |
[V:3]G4 F2F2 |
[V:4]=E,4 _E,2D,2 |
[V:1]d'2>b2 _g2f2 |
[V:2]_G6 A2 |
[V:3]D8- |
[V:4]B,,6 _C,2 |
[V:1]_g2f2 g2a2 |
[V:2]_G2A2 G2F2 |
[V:3]D8- |
[V:4]B,,2_C,2 B,,2A,,2 |
[V:1]b2>a2 _g2f2 |
[V:2]_G2>A2 B4- |
[V:3]D8- |
[V:4]_G,,8 |
[V:1]=e2e2 f2f2 |
[V:2]B4 A4 |
[V:3]D4 C4 |
[V:4]G,,4 A,,4 |
[V:1]d2d2 c2=B2 |
[V:2]F2F2 F2F2 |
[V:3]B,2B,2 A,2A,2 |
[V:4]B,,2B,,2 C,2D,2 |
[V:1]c2z2 =E2z3/E/ |
[V:2]F2z2 B,2z3/B,/ |
[V:3]A,2z2 G,2z3/G,/ |
[V:4]C,2z2 C,2z2 |
[V:1]=E4 F2z2 |
[V:2]B,4 A,2z2 |
[V:3]G,4 F,2z2 |
[V:4]F,,2F,2 F,,2z2 |
[V:1]c4 f2=a2 |
[V:2]=ACAC ACAC |
[V:3]FCFC FCFC |
[V:4]F,4 z4 |
[V:1]g2>=e2 f2f2 |
[V:2]BCBC =ACAC |
[V:3]=ECEC FCFC |
[V:4]C,4 F,2z2 |
[V:1]g2=a2 b2c'2 |
[V:2]GC=AC BCcC |
[V:3]=ECFC GCGC |
[V:4]C,4 z2=E,,2 |
[V:1]b2=a2 g4 |
[V:2]BC=AC GCGC |
[V:3]GCFC =ECEC |
[V:4]F,,2=A,,2 C,2z2 |
[V:1]f6 =a2 |
[V:2]F=A,FA, FA,=AA, |
[V:3]=D=A,DA, DA,=EA, |
[V:4]=D,6 ^C,2 |
[V:1]g2f2 =e2=d2 |
[V:2]G=A,FG, =EG,FA, |
[V:3]=D=A,DG, CG,DA, |
[V:4]=D,2=B,,2 C,2F,,2 |
[V:1]c2c2 c2=d=B |
[V:2]=EG,EG, EG,FG, |
[V:3]CG,CG, CG,=DG, |
[V:4]G,,8 |
[V:1]=B4 c2z2 |
[V:2]FG,FG, =EG,EG, |
[V:3]=DG,DG, CG,B,G, |
[V:4]C,4 z4 |
[V:1]=B4 c2z2 |
[V:2]FG,FG, =EG,EG, |
[V:3]=DG,DG, CG,=E,G, |
[V:4]C,4 z4 |
[V:1]b4 g2c'2 |
[V:2]GCGC GCGC |
[V:3]=ECEC ECEC |
[V:4]C,4 z4 |
[V:1]=a2>g2 fgab |
[V:2]=ACAC ACAC |
[V:3]FCFC FCFC |
[V:4]F,4 z4 |
[V:1]c'4 =a2=d'2 |
[V:2]=ACAC ACAC |
[V:3]ECEC =DCDC |
[V:4]F,4 ^F,4 |
[V:1]c'2=b2 _b2=a2 |
[V:2]=ACG=B, G_B,F=A, |
[V:3]=DCD=B, C_B,C=A, |
[V:4]G,4 =E,2F,2 |
[V:1]g2>=a2 bagf |
[V:2]GG,GG, GG,FG, |
[V:3]=DG,DG, DG,DG, |
[V:4]B,,6 =B,,2 |
[V:1]c6 f=B |
[V:2]=EG,GC =ACF=D |
[V:3]CG,=EC FC=D=B, |
[V:4]C,4 z4 |
[V:1]c6 f=B |
[V:2]=ECGC =ACF=D |
[V:3]CG,=EC FC=D=B, |
[V:4]C,4 z4 |
[V:1]c2>c2 =Bc=dc |
[V:2]=EG,EG, EG,EG, |
[V:3]CG,CG, B,G,B,G, |
[V:4]C,4 z4 |
[V:1]c4 f2=a2 |
[V:2]F=A,FA, =ACAC |
[V:3]=A,F,A,F, FCFC |
[V:4]F,,4 z4 |
[V:1]g2>=e2 f2f2 |
[V:2]BCBC =ACAC |
[V:3]=ECEC FCFC |
[V:4]C,4 F,2z2 |
[V:1]g2=a2 b2c'2 |
[V:2]GC=AC BCcC |
[V:3]=ECFC GCGC |
[V:4]C,4 z2=E,,2 |
[V:1]b2=a2 g4 |
[V:2]BC=AC GCGC |
[V:3]GCFC =ECEC |
[V:4]F,,2=A,,2 C,2z2 |
[V:1]b6 =d'2 |
[V:2]B=DBD BD=dD |
[V:3]G=DGD GD=AD |
[V:4]G,6 ^F,2 |
[V:1]c'2b2 =a2g2 |
[V:2]c=DBC =ACGD |
[V:3]=A=DGC FCDG, |
[V:4]G,2=E,2 F,2B,,2 |
[V:1]f2f2 f2g=e |
[V:2]F=A,FA, FA,=EG, |
[V:3]C=A,CA, CA,B,G, |
[V:4]C,8 |
[V:1]=e4 f2z2 |
[V:2]=EG,EG, F2z2 |
[V:3]B,G,B,G, =A,2z2 |
[V:4]F,,2F,2 F,,2z2 |
[V:1]c4 f2a2 |
[V:2]A8 |
[V:3]C8 |
[V:4]F,8- |
[V:1]g2>f2 =e2f2 |
[V:2]B6 A2 |
[V:3]D6 C2 |
[V:4]F,8 |
[V:1]c2c2 c2f=B |
[V:2]G2A2 G2F2 |
[V:3]C2F2 =E2=D2 |
[V:4]=E,2F,2 E,2G,2 |
[V:1]=B4 c2B2 |
[V:2]F4 =E2F2 |
[V:3]=D4 C2z2 |
[V:4]C,6 =D,2 |
[V:1]B4 G2d2 |
[V:2]G8 |
[V:3]D4 B,2B,2 |
[V:4]=E,8 |
[V:1]c2>B2 A2B2 |
[V:2]A2>G2 F2F2 |
[V:3]A,2>B,2 C2B,2 |
[V:4]F,6 D,2 |
[V:1]E2E2 E2F3/G/ |
[V:2]D6 D2 |
[V:3]G,6 B,2 |
[V:4]E,8 |
[V:1]G4 A2z2 |
[V:2]D4 C2z2 |
[V:3]B,4 A,2z2 |
[V:4]A,,2A,2 A,,2z2 |
[V:1]c2>=E2 (3FAc(3fac' |
[V:2]A4 z4 |
[V:3][F,4A,4] z4 |
[V:4]F,,4 z4 |
[V:1]a2g>f =eg2f |
[V:2]B6 A2 |
[V:3]D6 C2 |
[V:4]F,8 |
[V:1]zczc zcz=B |
[V:2]G2A2 G2F2 |
[V:3]C2F2 =E2=D2 |
[V:4]=E,2F,2 E,2G,2 |
[V:1]=B2=dc c2B2 |
[V:2]F4 =E2F2 |
[V:3]=D2=B,C C2z2 |
[V:4]C,6 =D,2 |
[V:1]B3G/A/ (3Bd=e(3gbd' |
[V:2]G8 |
[V:3]D4 B,4 |
[V:4]=E,8 |
[V:1](3=bc'g(3a=ef (3=BcG(3A=A_B |
[V:2]A4 z2F2 |
[V:3]C4 z2B,2 |
[V:4]F,6 D,2 |
[V:1](3=DEF(3_G=GA (3=ABc(3dBG |
[V:2]D8 |
[V:3]G,6 B,2 |
[V:4]E,8 |
[V:1]G4 A2z2 |
[V:2]D4 C2z2 |
[V:3]B,4 A,2z2 |
[V:4]A,,2A,2 A,,2z2 |
[V:1](3e=Bc(3=Ace (3_gfe(3dec |
[V:2]=A8 |
[V:3]E4 C2_G2 |
[V:4]F,6 E,2 |
[V:1](3fcd(3f=AB (3edB(3edB |
[V:2]B8 |
[V:3]F4 D4 |
[V:4]D,4 _G,4 |
[V:1](3ce_g(3fed (3cB=A(3_GFA |
[V:2]_G2G2 E2E2 |
[V:3]E2E2 F2C2 |
[V:4]E,2E,2 F,2F,2 |
[V:1](3B4>>F4 B(3cFc |
[V:2]D2z2 D2E2 |
[V:3]B,2z2 B2=A2 |
[V:4](3B,,D,E,(3F,G,=A, B,2z2 |
[V:1](3d4>>F4 d(3=eBe |
[V:2]F2z2 F2G2 |
[V:3]B2z2 F2B2 |
[V:4](3B,,D,E,(3F,G,=A, B,2z2 |
[V:1](3f4>>=e4 f(3af=B |
[V:2]A2z4 =B,2 |
[V:3]A2z4 =B,2 |
[V:4](3=B,,=D,F,(3A,=B,=D F2B,,2 |
[V:1](3c=eg(3c'ge (3c'bg(3c'af |
[V:2](3C=EG(3cGE (3cBG(3cAF |
[V:3](3C=EG(3cGE (3cBG(3cAF |
[V:4](3C,=E,G,(3CG,E, (3CB,G,(3CA,F, |
[V:1]c4 z4 |
[V:2]C2z6 |
[V:3]C4 z4 |
[V:4]C,2>D,2 C,B,,A,,G,, |
[V:1]c2>=E2 (3FAc(3fac' |
[V:2]A4 z4 |
[V:3][A,4F,4] z4 |
[V:4]F,,4 z4 |
[V:1]a2g>f =eg2f |
[V:2]B6 A2 |
[V:3]D6 C2 |
[V:4]F,8 |
[V:1]c'2>b2 =ac'2b |
[V:2](3:2:2c4-c/=AB2 |
[V:3]G4 F4 |
[V:4]=E,4 _E,2D,2 |
[V:1]d'2>b2 _ggaf |
[V:2]_G6 A2 |
[V:3]D8- |
[V:4]B,,6 _C,2 |
[V:1]_ggaf g=ga=a |
[V:2]_G2A2 G2F2 |
[V:3]D8- |
[V:4]B,,2_C,2 B,,2A,,2 |
[V:1]b2>a2 a_ggf |
[V:2]_G2>A2 B4- |
[V:3]D8- |
[V:4]_G,,8 |
[V:1](3f=eg(3bge (3gfg(3afc |
[V:2]B4 A4 |
[V:3]D4 C4 |
[V:4]G,,4 A,,4 |
[V:1]edzd zcz=B |
[V:2]F2F2 F2F2 |
[V:3]B,2B,2 A,2A,2 |
[V:4]B,,2B,,2 C,2D,2 |
[V:1](3c=ef(3afc (3=ABc(3dB=E |
[V:2]F2z2 =E2z2 |
[V:3]A,2z2 B,2z2 |
[V:4]C,2z2 C,2z2 |
[V:1]=E4 F2z2 |
[V:2]B,4 A,2z2 |
[V:3]G,4 F,2z2 |
[V:4]F,,2F,2 F,,2z2 |
[V:1]c4 f2=a2 |
[V:2]=ACAC ACAC |
[V:3]FCFC FCFC |
[V:4]F,4 z4 |
[V:1]g2>=e2 f2f2 |
[V:2]BCBC =ACAC |
[V:3]=ECEC FCFC |
[V:4]C,4 F,2z2 |
[V:1]g2=a2 b2c'2 |
[V:2]GC=AC BCcC |
[V:3]=ECFC GCGC |
[V:4]C,4 z2=E,,2 |
[V:1]b2=a2 g4 |
[V:2]BC=AC GCGC |
[V:3]GCFC =ECEC |
[V:4]F,,2=A,,2 C,2z2 |
[V:1]f6 =a2 |
[V:2]F=A,FA, FA,=AA, |
[V:3]=D=A,DA, DA,=EA, |
[V:4]=D,6 ^C,2 |
[V:1]g2f2 =e2=d2 |
[V:2]G=A,FG, =EG,FA, |
[V:3]=D=A,DG, CG,DA, |
[V:4]=D,2=B,,2 C,2F,,2 |
[V:1]c2c2 c2=d=B |
[V:2]=EG,EG, EG,FG, |
[V:3]CG,CG, CG,=DG, |
[V:4]G,,8 |
[V:1]=B4 c2z2 |
[V:2]FG,FG, =EG,EG, |
[V:3]=DG,DG, CG,B,G, |
[V:4]C,4 z4 |
[V:1]c2>c2 fcf=a |
[V:2]F=A,FA, =ACAC |
[V:3]=A,CA,C FCFC |
[V:4]F,,4 z4 |
[V:1]ggb=e fef^f |
[V:2]BCBC =ACAC |
[V:3]=ECEC FCFC |
[V:4]C,4 F,2z2 |
[V:1]g^g=ab =bc'=d'c' |
[V:2]G^G=AB =Bc=dc |
[V:3]=ECFC GCEG |
[V:4]C,4 z2=E,,2 |
[V:1]b2=a2 g2z2 |
[V:2]BC=AC GCGC |
[V:3]GCFC =ECEC |
[V:4]F,,2=A,,2 C,2z2 |
[V:1]f3(3g/f/=e/ fg=aa |
[V:2]F=A,FA, FA,=AA, |
[V:3]=D=A,DA, DA,=EA, |
[V:4]=D,6 ^C,2 |
[V:1]g^fz=f z=ez=d |
[V:2]G=A,FG, =EG,FA, |
[V:3]=D=A,DG, CG,DA, |
[V:4]=D,2=B,,2 C,2F,,2 |
[V:1]c/=e/g/=b/c'/g/=e'/c'/ g'/e'/g'/e'<f'b/ |
[V:2]=EG,EG, EG,FG, |
[V:3]CG,CG, CG,=DG, |
[V:4]G,,8 |
[V:1]=d'4 c'2z2 |
[V:2]=D=B,DB, =EG,EG, |
[V:3]=B,G,B,G, CG,CG, |
[V:4]C,,6 z2 |
[V:1]b3(3c'/b/=a/ gabc' |
[V:2]GCGC GCGC |
[V:3]=ECEC ECEC |
[V:4]C,4 z4 |
[V:1]=a2>g2 fa/g/b/a/c'/b/ |
[V:2]=ACAC ACAC |
[V:3]FCFC FCFC |
[V:4]F,4 z4 |
[V:1]c'2>b2 (3=ab=b(3c'^c'=d' |
[V:2]=ACAC ACAC |
[V:3]ECEC =DCDC |
[V:4]F,4 ^F,4 |
[V:1]c'2=b2 _b2=a2 |
[V:2]=ACG=B, G_B,F=A, |
[V:3]=DCD=B, C_B,C=A, |
[V:4]G,4 =E,2F,2 |
[V:1]g2>=a2 bagf |
[V:2]GG,GG, GG,FG, |
[V:3]=DG,DG, DG,DG, |
[V:4]B,,6 =B,,2 |
[V:1]c6 f=B |
[V:2]=EG,GC =ACF=D |
[V:3]CG,=EC FC=D=B, |
[V:4]C,4 z4 |
[V:1]c6 (3f=d=B |
[V:2]=ECGC =ACF=D |
[V:3]CG,=EC FC=D=B, |
[V:4]C,4 z4 |
[V:1]c2>c2 =Bc=dc |
[V:2]=EG,EG, EG,EG, |
[V:3]CG,CG, B,G,B,G, |
[V:4]C,4 z4 |
[V:1]c2>c2 fcf=a |
[V:2]F=A,FA, =ACAC |
[V:3]=A,F,A,F, FCFC |
[V:4]F,,4 z4 |
[V:1]ggb=e fef^f |
[V:2]BCBC =ACAC |
[V:3]=ECEC FCFC |
[V:4]C,4 F,2z2 |
[V:1]g^g=ab =bc'=d'c' |
[V:2]G^G=AB =Bc=dc |
[V:3]=ECFC GCEG |
[V:4]C,4 z2=E,,2 |
[V:1]b2=a2 g2z2 |
[V:2]BC=AC GCGC |
[V:3]GCFC =ECEC |
[V:4]F,,2=A,,2 C,2z2 |
[V:1]b3(3c'/b/=a/ bc'=d'd' |
[V:2]B=DBD BD=dD |
[V:3]G=DGD GD=AD |
[V:4]G,6 ^F,2 |
[V:1]c'=bz_b z=azg |
[V:2]c=DBC =ACGD |
[V:3]=A=DGC FCDG, |
[V:4]G,2=E,2 F,2B,,2 |
[V:1]f/=a/c'/a/f/c/=A/F/ C2[B,2=E2] |
[V:2]F=A,FA, FA,=EG, |
[V:3]C=A,CA, CA,B,G, |
[V:4]C,8 |
[V:1][B,4=E4] [F2=A,2]z2 |
[V:2]=EG,EG, F2z2 |
[V:3]B,G,B,G, =A,2z2 |
[V:4]F,,2F,2 F,,2z2 |
[V:1]c4 f2a2 |
[V:2]z8 |
[V:3]C4 F2A2 |
[V:4]z=E,F,G, A,B,CF, |
[V:1]g2>f2 =e2f2 |
[V:2]z8 |
[V:3]G2>F2 =E2F2 |
[V:4]B,CB,D CB,A,F, |
[V:1]c2c2 c2f=B |
[V:2]G=EAF GEF=D |
[V:3]C2C2 C2F=B, |
[V:4]=E,G,F,A, E,G,=D,F, |
[V:1]=B4 c2B2 |
[V:2]F4 =E2z2 |
[V:3]=B,4 C2B,2 |
[V:4]C,=D,F,=E, G,F,A,G, |
[V:1]B4 G2d2 |
[V:2]G4 =E2B2 |
[V:3]B,4 G,2D2 |
[V:4]F,=E,DC B,G,F,E, |
[V:1]c2>B2 A2B2 |
[V:2]A4 z2FE |
[V:3]C2>B,2 A,2B,2 |
[V:4]F,G,A,G, F,E,D,B,, |
[V:1]E2E2 E2F3/G/ |
[V:2]DCB,A,2 <G,2D |
[V:3]G,A,B,C D2E,2 |
[V:4]E,F,G,A, B,CDB, |
[V:1]G4 A2z2 |
[V:2]D4 C2z2 |
[V:3]A,4 z4 |
[V:4]A,E,C,E, A,,B,,A,,G,, |
[V:1]c4 e2_g2 |
[V:2]=A,6 B,2 |
[V:3]C4 E2_G2 |
[V:4]F,,=E,F,=A, CDCB, |
[V:1]f2>e2 d2d2 |
[V:2]C=A,B,C D2B2 |
[V:3]F2>E2 D2D2 |
[V:4]=A,F,G,A, B,_A,_G,F, |
[V:1]c2c2 =A2A2 |
[V:2]_GEFG FEDC |
[V:3]C2C2 =A,2A,2 |
[V:4]E,C,D,E, F,_G,F,E, |
[V:1]B6 c2 |
[V:2]B,2>C2 D2E_G |
[V:3]F_GFE D2=A,2 |
[V:4]D,E,D,C, B,,D,F,=A, |
[V:1]d6 =e2 |
[V:2]F6 G2 |
[V:3]B,CB,A, G,DCB, |
[V:4]B,CB,A, G,DCB, |
[V:1]f6 a2 |
[V:2]A6 f2 |
[V:3]CDCB, A,DC=B, |
[V:4]A,B,A,G, F,D,C,=B,, |
[V:1]gc'=bc' ac'af |
[V:2]ec=Bc AcAF |
[V:3]Cc=Bc AcAF |
[V:4]C,C=B,C A,CA,F, |
[V:1]c4 z4 |
[V:2]C2z6 |
[V:3]C4 z4 |
[V:4]C,=B,,C,D, C,_B,,A,,G,, |
[V:1]c4 f2a2 |
[V:2]z8 |
[V:3]C4 F2A2 |
[V:4]F,,=E,F,G, A,B,CF, |
[V:1]g2>f2 =e2f2 |
[V:2]z8 |
[V:3]G2>F2 =E2F2 |
[V:4]B,CB,D CB,A,F, |
[V:1]c'2>b2 =a2b2 |
[V:2]G=EFG =AcB_A |
[V:3]c2>B2 =A2B2 |
[V:4]=E,C,=D,E, F,_E,_D,C, |
[V:1]d'2>b2 _g2f2 |
[V:2]_G6 A2 |
[V:3]d2>B2 _G2F2 |
[V:4]B,,D,_G,D, B,,D,_C,D, |
[V:1]_g2f2 g2a2 |
[V:2]_G2A2 G2F2 |
[V:3]_G2F2 G2A2 |
[V:4]B,,D,_C,D, B,,D,A,,D, |
[V:1]b2>a2 _g2f2 |
[V:2]_G4 z4 |
[V:3]B2>A2 _G2F2 |
[V:4]_G,,D,_G,A, B,DA,C |
[V:1]=e2e2 f2f2 |
[V:2]BGBG FAA,C |
[V:3]=E2E2 F2F2 |
[V:4]G,B,G,B, A,F,C,A,, |
[V:1]d2d2 c2=B2 |
[V:2]B,4 z4 |
[V:3]D2D2 C2=B,2 |
[V:4]B,,F,B,,F, C,F,D,F, |
[V:1]c2z2 =E2z3/E/ |
[V:2]A2z2 B,2z3/B,/ |
[V:3]C2z2 G,2z3/G,/ |
[V:4]C,F,A,C C,=E,G,C |
[V:1]=E4 F2z2 |
[V:2]B,4 A,2z2 |
[V:3]G,4 F,2z2 |
[V:4]F,,F,=E,F, F,,2z2 |
[V:1]c4 f2=a2 |
[V:2]=ACAC ACAC |
[V:3]FCFC FCFC |
[V:4]F,4 z4 |
[V:1]g2>=e2 f2f2 |
[V:2]BCBC =ACAC |
[V:3]=ECEC FCFC |
[V:4]C,4 F,2z2 |
[V:1]g2=a2 b2c'2 |
[V:2]GC=AC BCcC |
[V:3]=ECFC GCGC |
[V:4]C,4 z2=E,,2 |
[V:1]b2=a2 g4 |
[V:2]BC=AC GCGC |
[V:3]GCFC =ECEC |
[V:4]F,,2=A,,2 C,2z2 |
[V:1]f6 =a2 |
[V:2]F=A,FA, FA,=AA, |
[V:3]=D=A,DA, DA,=EA, |
[V:4]=D,6 ^C,2 |
[V:1]g2f2 =e2=d2 |
[V:2]G=A,FG, =EG,FA, |
[V:3]=D=A,DG, CG,DA, |
[V:4]=D,2=B,,2 C,2F,,2 |
[V:1]c2c2 c2=d=B |
[V:2]=EG,EG, EG,FG, |
[V:3]CG,CG, CG,=DG, |
[V:4]G,,8 |
[V:1]=B4 c2z2 |
[V:2]FG,FG, =EG,EG, |
[V:3]=DG,DG, CG,B,G, |
[V:4]C,4 z4 |
[V:1]z8 |
[V:2]=A,CA,C A,CA,C |
[V:3]F,=A,F,A, F,A,F,A, |
[V:4]C4 F2=A2 |
[V:1]c'/=d'/c'/d'/c'/b/=a/g/ f2z2 |
[V:2]B,=EB,E =A,FA,F |
[V:3]F,B,F,B, F,=A,F,A, |
[V:4]G2>=E2 F2F2 |
[V:1]z=d'/c'/zd'/c'/ zd'/c'/zd'/c'/ |
[V:2]=E2F2 G2=A2 |
[V:3]C,CC,C C,CC,C |
[V:4]G2=A2 B2c2 |
[V:1]z/c'/f'/=e'/f'/c'/=a/f/ c'2z2 |
[V:2]G2F2 =E4 |
[V:3]F,CF,C C,CC,C |
[V:4]B2=A2 G4 |
[V:1]z/=a/=b/^c'/=d'/=e'/f'/g'/ =a'a'a'a' |
[V:2]F=A,FA, F=D=E^C |
[V:3]=D,=A,F,A, D,A,^C,A, |
[V:4]F6 =A2 |
[V:1]zg'zf' z=e'z=d' |
[V:2]=D=A,=B,D =ECA,F |
[V:3]=D,=A,D,=B, C,CF,A, |
[V:4]G2F2 =E2=D2 |
[V:1]c'/g/c'/=e'/g'/e'/g'/e'/ g'/e'/g'/e'<f'=b/ |
[V:2]=E2E2 E2=D3/F/ |
[V:3]G,2G,2 G,2G,2 |
[V:4]C2C2 C2=D3/=B,/ |
[V:1]=d'4 c'2z2 |
[V:2]F4 =E2z2 |
[V:3]C,CC,C C,CG,=E, |
[V:4]=B,4 C2z2 |
[V:1]z8 |
[V:2]G4 =E2E2 |
[V:3]C,C=D,C =E,CC,C |
[V:4]B4 G2c2 |
[V:1]c'/=d'/c'/d'/c'/d'/c'/b/ =abc'd' |
[V:2]F4 z4 |
[V:3]F,CF,G, =A,2z2 |
[V:4]=A2>G2 FGAB |
[V:1]e'/=d'/e'/d'/e'/f'/e'/d'/ c'b=ad' |
[V:2]z8 |
[V:3]F,=A,F,A, ^F,=DF,D |
[V:4]c4 =A2=d2 |
[V:1]zc'z=b z_bz=a |
[V:2]z8 |
[V:3]G,=DG,D =E,CF,C |
[V:4]c2=B2 _B2=A2 |
[V:1]z/^c'/=d'/c'/d'/c'/d'/c'/ d'=c'b/=a/g/f/ |
[V:2]z8 |
[V:3]B,7 =B, |
[V:4]G2G=A BAGF |
[V:1]c'2=a/g/f/g/ a2f'=b |
[V:2]z2F/=E/=D/E/ F2=B,F |
[V:3]C,CC,C C,CC,C |
[V:4]C6 F=B, |
[V:1]c'2=a/g/f/g/ a2f'=b |
[V:2]=E2F/E/=D/E/ F2=B,F |
[V:3]C,CC,C C,CC,C |
[V:4]C6 F=B, |
[V:1]c'4 z4 |
[V:2]=E4 z4 |
[V:3]C,C=D,C =E,CB,E, |
[V:4]C2>C2 =B,C=DC |
[V:1]z8 |
[V:2]=A,CA,C A,CA,C |
[V:3]F,=A,F,A, F,A,F,A, |
[V:4]C4 F2=A2 |
[V:1]c'/=d'/c'/d'/c'/b/=a/g/ f2z2 |
[V:2]B,=EB,E =A,FA,F |
[V:3]F,B,F,B, F,=A,F,A, |
[V:4]G2>=E2 F2F2 |
[V:1]z=d'/c'/zd'/c'/ zd'/c'/zd'/c'/ |
[V:2]=E2F2 G2=A2 |
[V:3]C,CC,C C,CC,C |
[V:4]G2=A2 B2c2 |
[V:1]z/c'/f'/=e'/f'/c'/=a/f/ c'2z2 |
[V:2]G2F2 =E4 |
[V:3]F,CF,C C,CC,C |
[V:4]B2=A2 G4 |
[V:1]z/=d/=e/^f/g/=a/b/c'/ =d'd'd'd' |
[V:2]B=DBD BG=A^F |
[V:3]G,=DB,D G,D^F,D |
[V:4]B6 =d2 |
[V:1]zc'zb z=azg |
[V:2]G=DG=E =AFDB, |
[V:3]G,=D=E,C F,FB,D |
[V:4]c2B2 =A2G2 |
[V:1]f/c/f/=a/c'/a/c'/a/ c'/a/c'/a<b=e/ |
[V:2]=A,2=A2 A2G3/B/ |
[V:3]C,6 C,2 |
[V:4]F2F2 F2G3/=E/ |
[V:1]g4 f2z2 |
[V:2]B4 =A2z2 |
[V:3]F,2F2 F,2z2 |
[V:4]=E4 F2z2 |
[V:1]b4 g2c'2 |
[V:2]z8 |
[V:3]G4 =E2E2 |
[V:4]C,,C,=D,,C, =E,,C,C,,C, |
[V:1]=a2>g2 fgab |
[V:2]c/=d/c/d/c/d/c/B/ =ABcd |
[V:3]F4 z4 |
[V:4]F,,C,F,,G,, =A,,2z2 |
[V:1]c'4 =a2=d'2 |
[V:2]e/=d/e/d/e/f/e/d/ cB=Ad |
[V:3]z8 |
[V:4]F,,=A,,F,,A,, ^F,,=D,F,,D, |
[V:1]c'2=b2 _b2=a2 |
[V:2]zcz=B z_Bz=A |
[V:3]=D3=E/F/ G2F2 |
[V:4]G,,=D,G,,D, =E,,C,F,,C, |
[V:1]g2>=a2 bagf |
[V:2]z/^c/=d/c/d/c/d/c/ d=cB/=A/G/F/ |
[V:3]=D6 D2 |
[V:4]B,,7 =B,, |
[V:1]c6 f=B |
[V:2]c2=A/G/F/G/ A2F2 |
[V:3]=E2F/E/=D/E/ F2D2 |
[V:4]C,,C,C,,C, C,,C,C,,C, |
[V:1]c6 f=B |
[V:2]=E2=A/G/F/G/ A2F2 |
[V:3]C2F/=E/=D/E/ F2D2 |
[V:4]C,,C,C,,C, C,,C,C,,C, |
[V:1]c2>c2 =Bc=dc |
[V:2]=E2z6 |
[V:3]C2z6 |
[V:4]C,,C,=D,,C, =E,,C,B,,E,, |
[V:1]c4 f2=a2 |
[V:2]z8 |
[V:3]=A,CA,C A,CA,C |
[V:4]F,,=A,,F,,A,, F,,A,,F,,A,, |
[V:1]g2>=e2 f2f2 |
[V:2]c/=d/c/d/c/B/=A/G/ F2z2 |
[V:3]B,=EB,E =A,FA,F |
[V:4]F,,B,,F,,B,, F,,=A,,F,,A,, |
[V:1]g2=a2 b2c'2 |
[V:2]z=d/c/zd/c/ zd/c/zd/c/ |
[V:3]=E2F2 G2=A2 |
[V:4]C,,C,C,,C, C,,C,C,,C, |
[V:1]b2=a2 g4 |
[V:2]z/c/f/=e/f/c/=A/F/ c2z2 |
[V:3]G2F2 =E4 |
[V:4]F,,C,F,,C, C,,C,C,,C, |
[V:1]b6 =d'2 |
[V:2]z/=D/=E/^F/G/=A/B/c/ =dddd |
[V:3]B=DBD BD=A^F |
[V:4]G,,=D,B,,D, G,,D,^F,,D, |
[V:1]c'2b2 =a2g2 |
[V:2]zczB z=AzG |
[V:3]G=DG=E =AFDB, |
[V:4]G,,=D,=E,,C, F,,F,B,,D, |
[V:1]f2f2 f2g3/=e/ |
[V:2]F/C/F/=A/c/A/c/A/ c/A/c/A<B=E/ |
[V:3]=A,2A,2 A,2=E,3/G,/ |
[V:4]C,,C,C,,C, C,,C,C,,C, |
[V:1]f2z6 |
[V:2]F2z6 |
[V:3]F,2z6 |
[V:4]F,,F,F,,F, F,,F,F,,F, |
[V:1]c4 g2b2 |
[V:2]=eGeG eGeG |
[V:3]BGBG BGBG |
[V:4]F,,F,F,,F, F,,F,F,,F, |
[V:1]=a2>g2 f2f2 |
[V:2]f=AfA fAfA |
[V:3]=AFAF AFAF |
[V:4]F,,F,F,,F, F,,F,F,,F, |
[V:1]=efg=a bc'=d'=e' |
[V:2]=eGeG eGeG |
[V:3]BGBG BGBG |
[V:4]F,,F,F,,F, F,,F,F,,F, |
[V:1]f'2=a'2 c''2z2 |
[V:2]f=AcF ACF=A, |
[V:3]=AFAC F=A,CF, |
[V:4]F,,F,F,,F, F,,F,F,,F, |
[V:1]C4 G2B2 |
[V:2]=EG,EG, EG,EG, |
[V:3]B,G,B,G, B,G,B,G, |
[V:4]F,,F,F,,F, F,,F,F,,F, |
[V:1]=A2>G2 F2F2 |
[V:2]F=A,FA, FA,FA, |
[V:3]=A,F,A,F, A,F,A,F, |
[V:4]F,,F,F,,F, F,,F,F,,F, |
[V:1]=EFG=A BABG |
[V:2]=EG,EG, EG,EG, |
[V:3]B,G,B,G, B,G,B,G, |
[V:4]F,,F,F,,F, F,,F,F,,F, |
[V:1]F2z4 B3/G/ |
[V:2]F2z4 =E2 |
[V:3]=A,2z4 G,3/B,/ |
[V:4]F,,2z4 C,2 |
[V:1]F2z4 B/=A/B/G/ |
[V:2]F2z4 =E2 |
[V:3]=A,2z4 G,3/B,/ |
[V:4]F,,2z4 C,2 |
[V:1]F2z2 >>c2B/=A/B/G/ |
[V:2]F2z4 =E2 |
[V:3]=A,2z4 G,3/B,/ |
[V:4]F,,2z4 C,2 |
[V:1]F2z2 [F2=A,2]z3/[A,/F/]|
[V:2]F2z2 C2z3/C/ |
[V:3]=A,2z2 F,2z3/F,/ |
[V:4]F,,2z2 F,,2z3/F,,/ |
[V:1][F2=A,2]z6 |]
[V:2]=A,2z6 |]
[V:3]F,2z6 |]
[V:4]F,,2z6 |]

